X:1
T:Waiting
T:Waiting
T:Daniel Brink Towner
T:Ada Ruth Habershon, 1914
T:Public Domain Courtesy of the Cyber Hymnal™
T:Public Domain Courtesy of the Cyber Hymnal™
C:Daniel Brink Towner
Z:Public Domain
Z:Courtesy of the Cyber Hymnal™
%%score ( 1 2 ) ( 3 4 )
L:1/8
Q:1/4=95
M:4/4
K:G
V:1 treble 
V:2 treble 
V:3 bass 
V:4 bass 
V:1
 D[DG] [DG]>[DA] [DG][DF][DE]D | [CE]2 [CF]2 [B,G]4 | [CE][^CA] [CA]>[CB] [CA][EG][DF][CE] | %3
w: 1.~Wait- ing for the com- ing of our|Lord from Heav’n,|Look- ing for the One who has our|
w: 2.~List- ening for the voice that wakes the|slum- bering dead,|Ev- ery mem- ber called to join their|
w: 3.~Watch- ing for the mo- ment when we|see His face,|Sum- moned at His side to take our|
w: 4.~Wait- ing thro’ the dark- ness on a|storm- y sea,|Gaz- ing o’er the wa- ters till His|
w: 5.~Look- ing not for signs and won- ders|in the skies,|Need- ing not the noise of war to|
 [DF]2 [DG]2 [DA]4 | [DG][GB] [GB]>[GB] [Gc][GB][DA][DG] | [FA]2 [=FB]2 [Ec]4 | %6
w: sins for- given,|Rest- ing on the prom- ise which His|love hath given,|
w: ris- en Head;|Know- ing He is com- ing quick- ly|as He said,|
w: fa- vored place;|Robed in im- mor- tal- i- ty and|changed by grace,|
w: form I see;|Then to join the ha- ven where we|fain would be,|
w: speak Him nigh,|On- ly watch- ing for the great as-|sem- bling cry,|
 [DB][Gd] [Gd]>[Ge] [Gd][DB][DG][CE] | [CF]2 [CA]2 !fermata![B,G]2 ||"^Refrain" [DB]2 | %9
w: Wait- ing for the com- ing of our|Lord from Heav’n.||
w: Wait- ing for the com- ing of our|Lord from Heav’n.||
w: Wait- ing for the com- ing of our|Lord from Heav’n.|Con-|
w: Wait- ing for the com- ing of our|Lord from Heav’n.||
w: Wait- ing for the com- ing of our|Lord from Heav’n.||
 [Gd]3 [Ge] [Gd][DB][CA][B,G] | [CE]2 [DF]2 [DG]2 [GB]2 | [Gd]3 [Ge] [Gd][GB][FA][EG] | %12
w: |||
w: |||
w: tent to wait till night has|passed a- way, Con-|tent to wait yet, long- ing|
w: |||
w: |||
 [FA]2 [GB]2 [FA]2 [GB]2 | [Gd]3 [Ge] [Gd][GB][DA][DG] | [CE]2 [DF]2 [DG]2 [DA]2 | %15
w: |||
w: |||
w: for the day; Con-|tent to wait with such full|joy be- fore, Con-|
w: |||
w: |||
 [DB]3 [Ge] !fermata![Gd][GB][FA][EG] | [EA]2 [FA]2 G4 |] %17
w: ||
w: ||
w: tent to wait, the bless- èd|day is sure.|
w: ||
w: ||
V:2
 D x5 D x | x8 | x8 | x8 | x8 | x8 | x8 | x6 || x2 | x8 | x8 | x8 | x8 | x8 | x8 | x8 | x4 G4 |] %17
V:3
 [G,B,][G,B,] [G,B,]>[G,C] [G,B,][G,B,][G,B,][G,B,] | [D,A,]2 [D,A,]2 G,4 | %2
 [C,G,][A,,G,] [A,,G,]>[A,,G,] [A,,G,][A,,^C][A,,D][A,,A,] | [D,A,]2 [D,B,]2 [D,C]4 | %4
 [G,B,][G,D] [G,D]>[G,D] [G,E][G,D][G,C][G,B,] | [D,D]2 G,2 [C,G,]4 | %6
 G,[G,B,] [G,B,]>[G,C] [G,B,]G,[B,,G,][C,G,] | [A,,A,]2 [D,F,]2 !fermata!G,2 || G,2 | %9
 [G,B,]3 [G,C] [G,B,]G,G,G, | [D,A,]2 [D,C]2 [G,B,]2 [G,D]2 | %11
 [G,B,]3 [G,C] [G,B,][G,D][D,C][E,B,] | [D,D]2 [G,D]2 [D,D]2 [G,D]2 | %13
 [G,B,]3 [G,C] [G,B,][G,D][B,,G,][B,,G,] | [B,,G,]2 [C,A,]2 [B,,G,]2 [D,F,]2 | %15
 G,3 [G,C] !fermata![G,B,][G,D][D,C][E,B,] | [C,C]2 [D,C]2 [G,,G,B,]4 |] %17
V:4
 x8 | x4 G,4 | x8 | x8 | x8 | x2 G,2 x4 | G, x3 G, x3 | x4 G,2 || G,2 | x5 G,G,G, | x8 | x8 | x8 | %13
 x8 | x8 | G,3 x5 | x8 |] %17

